X: 588
T:Sean Ryan's 3
M:6/8
L:1/8
C:Sean R.
S:Andrew Davey
R:Jig
N:Posted to the woodenflute mailing list October 2002
N:Made more fruit friendly by Craig Herrity
Z:Craig Herrity
K:G
d/2B/2|GAG dBd|~g3 Bdg|edc BcA|BGE EDE|~G3 dBd|gfg Bdg
|edc BcA|BGF G2::B/2A/2|GBd ~g3|ecA dBG|~c2c BdB|
AGA BGE|GBd ~g3|ecA dBG|cec BdB|AGF G2:|

